X:1
T:Katyusha uke
T:Katyusha
T:Soviet song
T: Matvei Blanter arr.: Naloi
%%score { ( 1 2 ) | ( 3 4 ) }
L:1/8
Q:1/4=96
M:4/4
K:F
V:1 treble-8 nm="Ukelele" snm="Uk."
V:2 treble-8 
V:3 tab stafflines=4 strings=G4,C4,E4,A4 nostems 
V:4 tab stafflines=4 strings=G4,C4,E4,A4 nostems 
V:1
 a2 d'2 c'2 d'c' | bbag a2 d2 | b3 g a3 f | eafe d4 | d3 e [da]4 | [da]4 _d4 | _d4 [de]4 | %7
 [_de]4 =defg |: a2 d'2 c'2 d'c' | bbag a2 d2 | b3 g a3 f |1 eafe defg :|2 eefe d4 || %13
[K:Gb] e3 f g3 e | ggfe f2 =d2 | f3 g a3 f | aagf efga |: b2 e'2 d'2 e'd' | c'c'ba b2 e2 | %19
 c'3 a b3 g |1 fbgf efga :|2 ffgf e4 ||!p! [eac']3 a [eb]3 g | [fb]b[dg][=df] e4 | %24
 !arpeggio![ac'e']3 a !arpeggio![egb]3 g | z bgf e4 |] %26
V:2
 [df]2 [df]2 [cf]2 [d^f]2 | [dg]4 [df]4 | [dg]4 [df]4 | ^c4 x4 | x4 f3 d | ffed e2 _d2 | %6
 e3 f g3 e | ggfe x4 |: [df]2 [df]2 [cf]2 [d^f]2 | [dg]4 [df]4 | [dg]4 [df]4 |1 ^c4 x4 :|2 %12
 ^c4 x4 ||[K:Gb] x4 [eb]4 | [eb]4 [=da]4 | =d4 d4 | [=df]4 x4 |: [eg]2 [=eg]2 [=dg]2 [_e=g]2 | %18
 [ea]4 [eg]4 | [ea]4 [eg]4 |1 =d4 x4 :|2 =d4 x4 || x8 | x8 | x8 | !arpeggio![b=d'f']4 x4 |] %26
V:3
 !1!A2 !1!d2 !1!c2 !1!d !1!c | !1!B !1!B !1!A !2!G !1!A2 !3!D2 | !1!B3 !2!G !1!A3 !2!F | %3
 !2!E !1!A !2!F !2!E !3!D4 | !3!D3 !2!E [!3!D!1!A]4 | [!3!D!1!A]4 !3!_D4 | !3!_D4 [!3!D!2!^E]4 | %7
 [!3!_D!2!E]4 !3!=D !2!E !2!F !2!G |: !1!A2 !1!d2 !1!c2 !1!d !1!c | %9
 !1!B !1!B !1!A !2!G !1!A2 !3!D2 | !1!B3 !2!G !1!A3 !2!F |1 %11
 !2!E !1!A !2!F !2!E !3!D !2!E !2!F !2!G :|2 !2!E !2!E !2!F !2!E !3!D4 || %13
[K:Gb] !3!_E3 !2!_F !2!_G3 !3!E | !2!_G !2!G !2!_F !3!_E !2!=F2 !3!=D2 | %15
 !2!_F3 !2!_G !4!_A3 !2!=F | !4!A !4!A !2!G !2!F !3!E !2!F !2!G !4!A |: %17
 !1!_B2 !1!_e2 !1!_d2 !1!e !1!d | !1!__c !1!_c !4!_B !2!_A !1!B2 !3!_E2 | %19
 !1!__c3 !2!_A !1!_B3 !2!_G |1 !2!_F !1!_B !2!_G !2!=F !3!E !2!F !2!G !4!A :|2 %21
 !2!F !2!F !2!G !2!F !3!E4 || [!3!E!2!A!1!c]3 !2!A [!3!E!1!B]3 !2!G | %23
 [!2!F!1!B] !1!B [!3!D!2!G] [!3!=D!2!F] !3!E4 | %24
 !arpeggio![!3!A!2!c!1!e]3 !3!A !arpeggio![!3!E!2!G!1!B]3 !2!G | x !3!B !3!G !3!F !3!E4 |] %26
V:4
 [!3!D!2!F]2 [!3!D!2!F]2 [!3!C!2!F]2 [!3!D!2!^F]2 | [!3!D!2!G]4 [!3!D!2!F]4 | %2
 [!3!D!2!G]4 [!3!D!2!F]4 | !3!^C4 x4 | x4 !2!F3 !3!D | !2!F !2!F !2!^E !3!D !2!=E2 !3!_D2 | %6
 !2!^E3 !2!F !4!G3 !2!=E | !4!G !4!G !2!F !2!^E x4 |: %8
 [!3!D!2!F]2 [!3!D!2!F]2 [!3!C!2!F]2 [!3!D!2!^F]2 | [!3!D!2!G]4 [!3!D!2!F]4 | %10
 [!3!D!2!G]4 [!3!D!2!F]4 |1 !3!^C4 x4 :|2 !3!^C4 x4 ||[K:Gb] x4 [!3!E!1!B]4 | %14
 [!3!E!1!B]4 [!3!=D!4!A]4 | !3!=D4 !3!D4 | [!3!=D!2!F]4 x4 |: %17
 [!3!E!2!_G]2 [!2!=E!3!G]2 [!3!=D!2!G]2 [!3!_E!2!=G]2 | [!3!E!2!__A]4 [!3!E!2!_G]4 | %19
 [!3!E!2!A]4 [!3!E!2!G]4 |1 !3!=D4 x4 :|2 !3!=D4 x4 || x8 | x8 | x8 | %25
 !arpeggio![!3!B!2!=d!1!f]4 x4 |] %26

